img/ingridients-icons/powdered-milk.svg

<svg width="32" height="20" viewBox="0 0 32 20" fill="none" xmlns="http://www.w3.org/2000/svg">
<path d="M8.48126 5.44995C8.74015 5.44995 8.95001 5.24009 8.95001 4.9812C8.95001 4.72232 8.74015 4.51245 8.48126 4.51245C8.22238 4.51245 8.01251 4.72232 8.01251 4.9812C8.01251 5.24009 8.22238 5.44995 8.48126 5.44995Z" fill="black"/>
<path d="M11.4875 5.44995C11.7464 5.44995 11.9562 5.24009 11.9562 4.9812C11.9562 4.72232 11.7464 4.51245 11.4875 4.51245C11.2286 4.51245 11.0187 4.72232 11.0187 4.9812C11.0187 5.24009 11.2286 5.44995 11.4875 5.44995Z" fill="black"/>
<path d="M9.98126 7.4187C10.2401 7.4187 10.45 7.20884 10.45 6.94995C10.45 6.69107 10.2401 6.4812 9.98126 6.4812C9.72238 6.4812 9.51251 6.69107 9.51251 6.94995C9.51251 7.20884 9.72238 7.4187 9.98126 7.4187Z" fill="black"/>
<path d="M12.9875 7.4187C13.2464 7.4187 13.4562 7.20884 13.4562 6.94995C13.4562 6.69107 13.2464 6.4812 12.9875 6.4812C12.7286 6.4812 12.5187 6.69107 12.5187 6.94995C12.5187 7.20884 12.7286 7.4187 12.9875 7.4187Z" fill="black"/>
<path d="M3.9375 7.4187C4.19638 7.4187 4.40625 7.20884 4.40625 6.94995C4.40625 6.69107 4.19638 6.4812 3.9375 6.4812C3.67862 6.4812 3.46875 6.69107 3.46875 6.94995C3.46875 7.20884 3.67862 7.4187 3.9375 7.4187Z" fill="black"/>
<path d="M6.97498 7.4187C7.23386 7.4187 7.44373 7.20884 7.44373 6.94995C7.44373 6.69107 7.23386 6.4812 6.97498 6.4812C6.71609 6.4812 6.50623 6.69107 6.50623 6.94995C6.50623 7.20884 6.71609 7.4187 6.97498 7.4187Z" fill="black"/>
<path d="M9.98126 3.47498C10.2401 3.47498 10.45 3.26511 10.45 3.00623C10.45 2.74734 10.2401 2.53748 9.98126 2.53748C9.72238 2.53748 9.51251 2.74734 9.51251 3.00623C9.51251 3.26511 9.72238 3.47498 9.98126 3.47498Z" fill="black"/>
<path d="M6.97498 3.47498C7.23386 3.47498 7.44373 3.26511 7.44373 3.00623C7.44373 2.74734 7.23386 2.53748 6.97498 2.53748C6.71609 2.53748 6.50623 2.74734 6.50623 3.00623C6.50623 3.26511 6.71609 3.47498 6.97498 3.47498Z" fill="black"/>
<path d="M5.50623 5.44995C5.76511 5.44995 5.97497 5.24009 5.97497 4.9812C5.97497 4.72232 5.76511 4.51245 5.50623 4.51245C5.24734 4.51245 5.03748 4.72232 5.03748 4.9812C5.03748 5.24009 5.24734 5.44995 5.50623 5.44995Z" fill="black"/>
<path d="M30.525 8.01875H26.0563C25.7938 8.01875 25.5875 8.23125 25.5875 8.4875C25.5875 8.75 25.8 8.95625 26.0563 8.95625H30.525C30.8188 8.95625 31.0563 9.19375 31.0563 9.4875V9.64375C31.0563 9.90625 30.8688 10.125 30.6125 10.1687L16.4188 12.5312C16.1938 12.5688 16.025 12.7625 16.025 12.9937V15.5C16.025 17.45 14.4375 19.0375 12.4875 19.0375H4.46875C2.51875 19.0375 0.93125 17.45 0.93125 15.5V8.95625H23.7438C24.0063 8.95625 24.2125 8.74375 24.2125 8.4875C24.2125 8.225 24 8.01875 23.7438 8.01875H16.8063C16.5375 7.375 15.8375 5.80625 14.7438 4.2125C12.8563 1.45625 10.6875 0 8.48125 0C6.275 0 4.1 1.45625 2.20625 4.2125C0.8125 6.2375 0.05625 8.2375 0.025 8.31875V8.325C0.01875 8.3375 0.01875 8.35 0.0125 8.3625C0.0125 8.36875 0.0125 8.36875 0.00625 8.375C0 8.3875 0 8.4 0 8.41875C0 8.425 0 8.425 0 8.43125C0 8.45 0 8.46875 0 8.48125V15.5C0 17.9688 2.00625 19.975 4.475 19.975H12.4938C14.9625 19.975 16.9688 17.9688 16.9688 15.5V13.3938L30.7688 11.0938C31.4813 10.975 32 10.3625 32 9.64375V9.4875C31.9938 8.675 31.3313 8.01875 30.525 8.01875ZM8.48125 0.9375C12.3125 0.9375 14.9688 6.16875 15.7938 8.0125H1.16875C1.9875 6.16875 4.64375 0.9375 8.48125 0.9375Z" fill="black"/>
</svg>

<svg width="32" height="20" fill="none" xmlns="http://www.w3.org/2000/svg"><path d="M8.481 5.45a.469.469 0 100-.938.469.469 0 000 .938zm3.007 0a.469.469 0 100-.937.469.469 0 000 .937zM9.981 7.419a.469.469 0 100-.938.469.469 0 000 .938zm3.007 0a.469.469 0 100-.938.469.469 0 000 .938zm-9.05 0a.469.469 0 100-.938.469.469 0 000 .938zm3.037 0a.469.469 0 100-.938.469.469 0 000 .938zm3.006-3.944a.469.469 0 100-.938.469.469 0 000 .938zm-3.006 0a.469.469 0 100-.938.469.469 0 000 .938zM5.506 5.45a.469.469 0 100-.938.469.469 0 000 .938z" fill="#000"/><path d="M30.525 8.019h-4.469a.468.468 0 100 .937h4.469a.53.53 0 01.531.532v.156a.53.53 0 01-.444.525L16.42 12.53a.47.47 0 00-.394.463V15.5a3.542 3.542 0 01-3.537 3.538h-8.02A3.542 3.542 0 01.932 15.5V8.956h22.813a.468.468 0 100-.937h-6.938a21.93 21.93 0 00-2.062-3.806C12.856 1.456 10.688 0 8.48 0 6.275 0 4.1 1.456 2.206 4.213.813 6.237.056 8.238.025 8.319v.006c-.006.013-.006.025-.013.038 0 .006 0 .006-.006.012C0 8.387 0 8.4 0 8.419V15.5a4.478 4.478 0 004.475 4.475h8.019a4.478 4.478 0 004.475-4.475v-2.106l13.8-2.3A1.47 1.47 0 0032 9.644v-.156a1.48 1.48 0 00-1.475-1.47zM8.481.937c3.832 0 6.488 5.232 7.313 7.075H1.169C1.988 6.17 4.644.937 8.48.937z" fill="#000"/></svg>
